X: 1709
T: Sen Böyle Gitmezdin
C: Ömer Sami Güpgüp
O: Turkey
F: http://compmusic.upf.edu/node/140
N: evic--sarki--aksak--sen_boyle--omer_sami_gupgup
N: makam= evic
N: form= sarki
N: usul= aksak = 9/8
M: 9/8
L: 1/16
K: C _1/4B ^f ^c 
Q: 1/4=156
%%MIDI tuningsystem comma53
B2cd d2^ef gfeg f6 | ^e2 fgg2 abag fga6  | 
w:  ARANAĞME  |   | 
=c'2ba g2=fe d2=cB A6 | A2 B=cc2 BAG2 GFF6  | \
w:   |   | 
B2cd d2^ef gfeg f6 | 
w:  ARANAĞME  | 
^e2 fgg2 abag fga6  | =c'2ba g2=fe d2=cB A6 | 
w:   |   | 
A2 B=cc2 BAG2 GFF6  | z4 ^e4 f8 a2 | \
w:   |  Sen  böy le   | 
g2 f2^e2 g2f8-f2  | z2a2 a4 a3g g4 f2 | 
w:  git *  mez *  din   |  ve dâ  et *  *  me  | 
a8ag fga6  | b2=c'4b2 a2g2 f4 a2 | g8=c'b afa6  | \
w:  den   SAZ  |  Bu  sev gi  bit *  mez  |  di  SAZ  | 
f2f6 f2^e2 d4 e2 | 
w:  ö mür  bit *  *  me  | 
f8=cB AGf6  | z4 ^e4 f8 a2 | g2 f2^e2 g2f8-f2  | \
w:  den   SAZ  |  Sen  böy le   |  git *  mez *  din   | 
z2a2 a4 a3g g4 f2 | 
w:  ve dâ  et *  *  me  | 
a8ag fga6  | b2=c'4b2 a2g2 f4 a2 | g8=c'b afa6  | \
w:  den   SAZ  |  Bu  sev gi  bit *  mez  |  di  SAZ  | 
f2f6 f2^e2 d4 e2 | 
w:  ö mür  bit *  *  me  | 
f8f^e dcd6  | z4 c2d2 d4 e4 d2 | c8ed cdc6  | \
w:  den   SAZ  |  Da ha  gün  doğ ma  |  dan  SAZ  | 
f6a2 g2f2 f4 a2 | 
w:  bir  sa bah  *  er  | 
g8ba gfa6  | z4 ^g2a2 g2a2 g2a2 f2 | \
w:  ken   SAZ  |  Ses *  siz *  *  *  ce   | 
z4f2 a2f4a6  | g4 g8 a4 gf | 
w:  bu  ka çış   |  öy ley se  ne  | 
f8bb afa6  | ag=fe ed=cB (3c2B2c2 B4 A2 | \
w:  den   SAZ  |  Kır *  *  *  dım  *  *  *  *  *  *  *  mı   | 
(3=c2B2c2B2 A2A2 AGF2 F2z2  | 
w:  kal *  *  *  *  *  *  *  bi ni   | 
G6G2 G2F2 A4 G2 | F8=cB AGF6  | ag=fe ed=cB (3c2B2c2 B4 A2 | 
w:  yok sa  bil *  *  me  |  den   SAZ  |  Kır *  *  *  dım  *  *  *  *  *  *  *  mı   | 
(3=c2B2c2B2 A2A2 AGF2 F2z2  | G6G2 G2F2 A4 G2 | \
w:  kal *  *  *  *  *  *  *  bi ni   |  yok sa  bil *  *  me  | 
F8=cB AGF6  | 
w:  den   SAZ  | 
B2cd d2^ef gfeg f6 | ^e2 fgg2 abag fga6  | 
w:  ARANAĞME  |   | 
=c'2ba g2=fe d2=cB A6 | A2 B=cc2 BAG2 GFF6  | \
w:   |   | 
B2cd d2^ef gfeg f6 | 
w:  ARANAĞME  | 
^e2 fgg2 abag fga6  | =c'2ba g2=fe d2=cB A6 | 
w:   |   | 
A2 B=cc2 BAG2 GFF6  | z4 ^e4 f4 f4 a2 | \
w:   |  Ar dın dan   | 
g2 f2^e2 g2f8z2  | 
w:  yas  *  *  tu tar   | 
a2a6 a3g g4 f2 | a8ag fga6  | b4 =c'2b2 a2g2 f4 a2 | \
w:  tu tar  ağ *  *  la  |  rım   SAZ  |  Has re te  gö mül  | 
g8=c'b afa6  | 
w:  dü  SAZ  | 
f2f6 f2^e2 d4 e2 | f8=cB AGF6  | z4 ^e4 f4 f4 a2 | \
w:  hü zün  dağ *  *  la  |  rım   SAZ  |  Ar dın dan   | 
g2 f2^e2 g2f8z2  | 
w:  yas  *  *  tu tar   | 
a2a6 a3g g4 f2 | a8ag fga6  | b4 =c'2b2 a2g2 f4 a2 | \
w:  tu tar  ağ *  *  la  |  rım   SAZ  |  Has re te  gö mül  | 
g8=c'b afa6  | 
w:  dü  SAZ  | 
f2f6 f2^e2 d4 e2 | f8f^e dcd6  | z2^e4d2 d4 d2e2 d2 | \
w:  hü zün  dağ *  *  la  |  rım   SAZ  |  Sev gi siz  ye şer  | 
c8ed cdc6  | 
w:  mez  SAZ  | 
f2f4a2 g2f2 f4 a2 | a8ba gfa6  | z4 ^g2a2 g2a2 g2a2 f2 | 
w:  gö nül  *  dağ *  *  la  |  rım   SAZ  |  Ner *  dey *  sen   | 
z2 f4 a2f4a6  | g2g6 g2f2 a4 gf | f8bb afa6  | \
w:  çık  da  gel   |  e cel  gel *  *  me  |  den   SAZ  | 
ag=fe ed=cB (3c2B2c2 B4 A2 | 
w:  Kır *  *  *  dım  *  *  *  *  *  *  *  mı   | 
(3=c2B2c2B2 A2A2 AGF2 F2z2  | G6G2 G2F2 A4 G2 | \
w:  kal *  *  *  *  *  *  *  bi ni   |  yok sa  bil *  *  me  | 
F8=cB AGF6  | 
w:  den   SAZ  | 
ag=fe ed=cB (3c2B2c2 B4 A2 | (3=c2B2c2B2 A2A2 AGF2 F2z2  | 
w:  Kır *  *  *  dım  *  *  *  *  *  *  *  mı   |  kal *  *  *  *  *  *  *  bi ni   | 
G6G2 G2F2 A4 G2 | F8=cB AGF6  | |


